X:215
T: LOBT DEN  HERRN
N: F0364
O: Europa, Mitteleuropa, Deutschland
R: Jugend - Lied, Tageszeiten, Morgen, religioes, Lob - Lied
M: 4/4
L: 1/8
K: Eb
 | E,4G,4 | B,8
B,2E4FD | E4z2
B,2 | C3DE2C2 | C2B,2G4 | G2
FEDCB,A, | G,3CB,2A,2 | B,4z4
B,4D3E | F2C2C2D2 | E2B,2E4 | E2
D2A2G2 | C3FE2D2 | E4z4

